epam-assets/icon-sources/18/internal-logo/assessment.svg

<svg width="18" height="18" viewBox="0 0 18 18" fill="none" xmlns="http://www.w3.org/2000/svg">
<g id="18/internal-logo/assessment">
<path id="icon" fill-rule="evenodd" clip-rule="evenodd" d="M8.59284 2.34572C8.59284 2.12803 8.76985 1.95113 8.98744 1.95113C9.20513 1.95113 9.38231 2.12803 9.38231 2.34572C9.38231 2.43225 9.35475 2.51447 9.30272 2.58319L9.30134 2.58496C9.29925 2.58766 9.29541 2.59264 9.29381 2.59444C9.293 2.59539 9.29196 2.59601 9.29091 2.59665C9.28978 2.59732 9.28864 2.59801 9.28772 2.59913C9.15713 2.74359 9.08522 2.93062 9.08522 3.12563C9.08522 3.25688 9.11822 3.38691 9.18094 3.50166C9.18285 3.50532 9.18541 3.50838 9.18799 3.51147L9.18799 3.51148L9.188 3.51148C9.18983 3.51368 9.19168 3.51589 9.19331 3.51834L9.19369 3.51928L10.2598 5.36569C10.1183 5.31591 9.97294 5.27447 9.82444 5.24109L9.82227 5.23546L9.82227 5.23545C9.82114 5.23235 9.82 5.22922 9.81844 5.22638L9.13069 4.04175H9.12835C9.10144 3.98878 9.04791 3.95147 8.98444 3.95147C8.91591 3.95147 8.86866 3.99281 8.83359 4.05422L8.16834 5.2215L8.16984 5.22366C8.16871 5.22587 8.16782 5.22828 8.16693 5.23069L8.16693 5.2307L8.16488 5.23594C8.01197 5.26922 7.86272 5.31159 7.71713 5.36241L8.78025 3.52106C8.78496 3.51265 8.78847 3.50393 8.79199 3.49518L8.79319 3.49219C8.85253 3.37969 8.88441 3.25341 8.88441 3.12563C8.88441 2.93334 8.81381 2.74913 8.68678 2.60541L8.6828 2.59887C8.68064 2.59519 8.67848 2.59149 8.67572 2.58797C8.62144 2.51822 8.59284 2.43431 8.59284 2.34572ZM3.25913 6.06516C3.44953 6.02419 3.64744 6.05531 3.81628 6.15291C3.92991 6.21853 4.026 6.31219 4.09416 6.42384C4.09831 6.43066 4.10146 6.43789 4.10459 6.44507L4.10709 6.45075L5.19084 8.32809C5.22178 8.15287 5.26434 7.98159 5.31797 7.81556L4.65197 6.67641C4.61597 6.615 4.60369 6.55284 4.63828 6.49284C4.67025 6.43744 4.72988 6.4095 4.78969 6.41278L4.79091 6.41062L6.13659 6.40734C6.24009 6.29362 6.35091 6.18722 6.46716 6.08662H4.31128C4.29844 6.08662 4.28597 6.08503 4.27378 6.08287C4.14872 6.07716 4.02553 6.042 3.91669 5.97919C3.75028 5.88319 3.62625 5.73019 3.56522 5.54841L3.5616 5.54183C3.55932 5.53782 3.55705 5.53382 3.55528 5.52937C3.52219 5.44762 3.46406 5.38106 3.38719 5.33672C3.19884 5.22787 2.95688 5.29247 2.84803 5.481C2.79525 5.57241 2.78128 5.67891 2.80866 5.78053C2.83584 5.88253 2.90109 5.96756 2.9925 6.02034C3.06741 6.06347 3.15234 6.08091 3.23775 6.07031C3.23893 6.07011 3.24011 6.07007 3.2413 6.07003L3.24431 6.06984L3.24931 6.06811C3.25248 6.06697 3.2556 6.06584 3.25913 6.06516ZM3.55922 12.4705C3.52566 12.5499 3.46828 12.6147 3.39338 12.658C3.20466 12.7664 2.96288 12.7017 2.85422 12.5137C2.74538 12.3251 2.81016 12.0831 2.9985 11.9745C3.07556 11.9302 3.16228 11.9132 3.24975 11.9251C3.25332 11.9256 3.25677 11.9256 3.26021 11.9256C3.26274 11.9256 3.26527 11.9256 3.26784 11.9258C3.32072 11.9368 3.37416 11.9424 3.42731 11.9424C3.56419 11.9424 3.69947 11.9065 3.82003 11.8371C3.93356 11.7712 4.02966 11.6776 4.09753 11.5663L4.09866 11.5641C4.1002 11.5619 4.10188 11.5599 4.10354 11.5579L4.10355 11.5579C4.10592 11.5551 4.10826 11.5523 4.11019 11.549L5.1915 9.67594C5.22113 9.843 5.26106 10.0064 5.3115 10.165L4.65197 11.2929C4.61597 11.3546 4.60369 11.4166 4.63828 11.4764C4.67025 11.5318 4.72988 11.5598 4.78969 11.5566L4.79091 11.5587L6.10959 11.562C6.219 11.6847 6.33647 11.7999 6.46069 11.9079H4.32206L4.31901 11.9076C4.31059 11.9065 4.30225 11.9055 4.29347 11.9059C4.16297 11.909 4.03388 11.9452 3.92016 12.0109C3.7515 12.1084 3.6255 12.2639 3.5655 12.4492C3.56463 12.4521 3.5641 12.4549 3.56356 12.4577C3.56312 12.46 3.56267 12.4624 3.56203 12.4647C3.56164 12.4658 3.5611 12.4668 3.56057 12.4678L3.55922 12.4705ZM15.1191 12.5293C15.2277 12.3407 15.1629 12.0988 14.9745 11.99C14.8976 11.9457 14.8102 11.9293 14.7233 11.9408C14.7196 11.9412 14.7161 11.9413 14.7125 11.9413L14.7057 11.9414C14.6526 11.9525 14.5991 11.9581 14.5458 11.9581C14.4088 11.9581 14.2735 11.9223 14.1532 11.8527C14.0399 11.7875 13.9439 11.6938 13.8755 11.5821L13.875 11.5809L13.875 11.5809L13.8748 11.5803L13.8743 11.5795L13.8726 11.5772L13.8693 11.5731C13.867 11.5705 13.8648 11.5679 13.863 11.5648L12.7746 9.67997C12.746 9.84066 12.7082 9.99844 12.6601 10.1518L12.6602 10.152L13.3423 11.3403L13.3411 11.3424C13.3736 11.3923 13.379 11.4573 13.3474 11.5121C13.313 11.5717 13.2537 11.5919 13.183 11.5914L11.839 11.584L11.8388 11.5836C11.7294 11.7043 11.6118 11.8175 11.4882 11.9237H13.6518L13.6591 11.9228C13.664 11.9221 13.6689 11.9214 13.674 11.9214H13.6796C13.8102 11.9247 13.9392 11.9611 14.0529 12.0267C14.2215 12.1239 14.3476 12.2796 14.4077 12.4649L14.4086 12.4688L14.4093 12.4725L14.4102 12.4776L14.4143 12.4875C14.4475 12.5657 14.505 12.6305 14.5797 12.6736C14.7686 12.7828 15.01 12.7177 15.1191 12.5293ZM8.97703 16.049C9.19481 16.049 9.37172 15.8719 9.37172 15.6543C9.37172 15.5678 9.34434 15.4858 9.29241 15.4169L9.2916 15.4157L9.29106 15.4147L9.28978 15.4122L9.28775 15.4104L9.28456 15.4077L9.28455 15.4077C9.28205 15.4057 9.27956 15.4036 9.27731 15.4012C9.14681 15.2567 9.07491 15.0697 9.07491 14.8747C9.07491 14.7435 9.108 14.6134 9.17044 14.4989C9.17449 14.4912 9.17951 14.4844 9.18449 14.4777L9.18684 14.4745L10.2468 12.6387C10.1054 12.6878 9.96066 12.7291 9.81253 12.7617L9.81222 12.7626C9.81201 12.7632 9.81182 12.7637 9.8115 12.7642L9.12384 13.9488H9.12122C9.0945 14.0017 9.04097 14.039 8.9775 14.039C8.90878 14.039 8.86172 13.9976 8.82675 13.9363L8.46167 13.2958L8.16141 12.769L8.16291 12.7669L8.16227 12.7652L8.16159 12.7634C8.00531 12.7293 7.85269 12.6858 7.70438 12.6333L8.76984 14.479C8.77688 14.4911 8.78222 14.5038 8.78672 14.5162C8.84325 14.6267 8.87409 14.7499 8.87409 14.8747C8.87409 15.0667 8.80378 15.2506 8.67666 15.3942L8.67303 15.4003C8.67066 15.4043 8.66828 15.4084 8.66541 15.4122C8.61113 15.482 8.58234 15.5657 8.58234 15.6543C8.58234 15.8719 8.75953 16.049 8.97703 16.049ZM14.0349 5.95903C13.9272 6.02109 13.8058 6.05597 13.6824 6.06234C13.6688 6.06488 13.6548 6.06656 13.6403 6.06656H11.4766C11.6004 6.17184 11.718 6.28434 11.8274 6.40434C11.8414 6.40013 11.8556 6.39759 11.8702 6.39684L11.8711 6.39441L13.2149 6.387C13.2858 6.38672 13.345 6.40669 13.3794 6.46622C13.4112 6.52125 13.4057 6.58622 13.3733 6.636L13.3744 6.63806L12.6922 7.82634C12.6844 7.83881 12.6746 7.85006 12.6638 7.86028C12.7073 8.00091 12.7421 8.14519 12.7696 8.29219L13.8444 6.4305L13.8476 6.42327L13.8477 6.42325C13.8505 6.41663 13.8534 6.41001 13.8573 6.40369C13.9253 6.29231 14.0212 6.19884 14.1352 6.13294C14.3035 6.03562 14.5017 6.00403 14.6923 6.04481C14.6943 6.04522 14.6962 6.04593 14.6981 6.04664C14.6998 6.04725 14.7014 6.04785 14.7031 6.04828C14.8012 6.06019 14.8846 6.04294 14.9589 6C15.0503 5.94741 15.1158 5.86219 15.143 5.76038C15.1703 5.65856 15.1562 5.55234 15.1034 5.46094C14.9948 5.27231 14.7525 5.20772 14.5643 5.31637C14.4876 5.36072 14.4293 5.42766 14.396 5.5095C14.3945 5.51324 14.3925 5.51668 14.3905 5.52013L14.387 5.52647C14.3262 5.709 14.2016 5.86266 14.0349 5.95903ZM10.719 11.924C10.6961 11.9326 10.6746 11.9446 10.6554 11.9605C10.1612 12.2407 9.59091 12.4015 8.98359 12.4015C7.10794 12.4015 5.58197 10.8757 5.58197 9C5.58197 7.75341 6.25669 6.66187 7.25944 6.06966C7.27153 6.06403 7.28278 6.05766 7.29375 6.04997C7.79203 5.76337 8.36878 5.59856 8.98359 5.59856C10.8592 5.59856 12.3849 7.12453 12.3849 9C12.3849 10.2421 11.7156 11.3301 10.719 11.924ZM15.1999 11.5992C15.0353 11.5046 14.8494 11.4675 14.661 11.4941C14.6596 11.4943 14.6585 11.4949 14.657 11.4951C14.6435 11.4955 14.6298 11.4967 14.616 11.4996C14.5351 11.5171 14.4507 11.5039 14.3787 11.462C14.3297 11.4338 14.2898 11.395 14.2606 11.3469C14.2588 11.344 14.2566 11.3413 14.2545 11.3386C14.2528 11.3366 14.2511 11.3345 14.2496 11.3323L12.9836 9.13997C12.9376 9.03816 12.9414 8.92181 12.9977 8.8245C13.0103 8.80284 13.0175 8.78006 13.0223 8.75672L14.239 6.64903C14.2407 6.64614 14.242 6.64306 14.2432 6.63995C14.2439 6.63813 14.2447 6.6363 14.2455 6.6345C14.2745 6.58884 14.313 6.55106 14.3606 6.5235C14.4327 6.48187 14.5168 6.46875 14.598 6.48591C14.5987 6.48613 14.5993 6.48615 14.6 6.48618C14.6004 6.48619 14.6009 6.48621 14.6014 6.48628C14.6037 6.48696 14.606 6.48769 14.6083 6.48844C14.6141 6.49027 14.6199 6.49212 14.6261 6.49312C14.6375 6.495 14.6487 6.49659 14.6584 6.49772C14.6935 6.50203 14.7287 6.50428 14.7638 6.50428C14.911 6.50428 15.0547 6.46566 15.1846 6.39075C15.3802 6.27769 15.5201 6.09534 15.5786 5.87719C15.6369 5.65884 15.607 5.43094 15.494 5.23537C15.261 4.83169 14.7425 4.69303 14.3387 4.92591C14.1741 5.02116 14.0495 5.16422 13.9781 5.33981C13.9779 5.34045 13.9777 5.34113 13.9775 5.34182C13.9772 5.34265 13.977 5.3435 13.9766 5.34431C13.9705 5.35622 13.9648 5.36841 13.9606 5.38144C13.935 5.46047 13.8814 5.52684 13.8095 5.56828C13.7602 5.59678 13.7067 5.61178 13.6506 5.61319C13.6467 5.61324 13.6431 5.61386 13.6394 5.61448C13.6371 5.61488 13.6348 5.61528 13.6324 5.61553H11.0393C10.9593 5.5935 10.889 5.54353 10.8419 5.47219L9.58416 3.29372C9.5826 3.29095 9.58069 3.28847 9.57877 3.28598C9.57744 3.28426 9.5761 3.28253 9.57488 3.28069C9.54966 3.23269 9.53625 3.18066 9.53625 3.12562C9.53625 3.04247 9.56672 2.96297 9.62231 2.90147C9.62272 2.90101 9.62296 2.90049 9.62319 2.89997C9.62343 2.89943 9.62366 2.8989 9.62409 2.89847C9.62589 2.89677 9.62772 2.8951 9.62955 2.89344C9.63467 2.88878 9.63978 2.88412 9.64434 2.87859L9.66281 2.85487C9.77437 2.70722 9.83334 2.53116 9.83334 2.34572C9.83334 1.87941 9.45384 1.5 8.98744 1.5C8.52122 1.5 8.14172 1.87941 8.14172 2.34572C8.14172 2.53584 8.20331 2.71528 8.31994 2.86509C8.32274 2.86869 8.32592 2.87181 8.32911 2.87492C8.33115 2.87692 8.33319 2.87891 8.33512 2.88103C8.33713 2.88384 8.33863 2.88686 8.34012 2.88988C8.34211 2.89391 8.3441 2.89793 8.34731 2.90147C8.40281 2.96297 8.43347 3.04247 8.43347 3.12562C8.43347 3.18244 8.41969 3.23616 8.39297 3.28556C8.39117 3.28877 8.38991 3.29205 8.38866 3.29529C8.38783 3.29745 8.38701 3.29959 8.38603 3.30169L7.16597 5.41519C7.14919 5.43037 7.13391 5.44744 7.122 5.46806C7.06819 5.56144 6.97472 5.62087 6.86897 5.63559H4.31859C4.31649 5.63536 4.3144 5.63503 4.3123 5.63471C4.30859 5.63413 4.30486 5.63356 4.30097 5.63344C4.24491 5.63194 4.19138 5.61694 4.14225 5.58853C4.07025 5.547 4.01672 5.48072 3.99113 5.40178C3.98681 5.38828 3.98091 5.37581 3.97444 5.36372L3.97341 5.35978C3.90197 5.18409 3.77719 5.04094 3.61275 4.94587C3.417 4.83319 3.18919 4.80281 2.97103 4.86159C2.75269 4.92 2.57034 5.05987 2.45738 5.25553C2.3445 5.45119 2.31441 5.679 2.373 5.89734C2.43141 6.1155 2.57128 6.29803 2.76703 6.41091C2.89678 6.48591 3.04069 6.52444 3.18797 6.52444C3.22284 6.52444 3.25819 6.52219 3.29334 6.51787L3.32494 6.51328C3.33141 6.51233 3.33739 6.51048 3.34334 6.50865C3.34558 6.50795 3.34781 6.50727 3.35006 6.50662C3.35072 6.50642 3.35139 6.50638 3.35203 6.50635C3.35258 6.50631 3.35311 6.50628 3.35363 6.50616C3.43491 6.48862 3.51891 6.50222 3.59081 6.54347C3.63863 6.57122 3.67697 6.609 3.70594 6.65494C3.70681 6.65675 3.70757 6.6586 3.70833 6.66046C3.70953 6.66341 3.71074 6.66637 3.71241 6.66919L4.99969 8.89894C5.02256 8.97459 5.01703 9.05559 4.98619 9.12984L3.72384 11.3164C3.72255 11.3181 3.72116 11.3198 3.71977 11.3215C3.71725 11.3246 3.71471 11.3277 3.71259 11.3314C3.68344 11.3792 3.6435 11.4179 3.59419 11.4464C3.52247 11.4878 3.43819 11.5013 3.35719 11.4839C3.34331 11.4809 3.32944 11.4797 3.31575 11.4794C3.31509 11.4793 3.31446 11.4791 3.31383 11.4789C3.3132 11.4787 3.31256 11.4786 3.31191 11.4785C3.12413 11.4519 2.93794 11.4887 2.77322 11.5837C2.36934 11.8169 2.23041 12.3352 2.46356 12.7391C2.61994 13.0102 2.90484 13.1617 3.19744 13.1617C3.34078 13.1617 3.48619 13.1253 3.61903 13.0486C3.77963 12.9557 3.90244 12.8166 3.97434 12.6471L3.98644 12.6169C3.98903 12.61 3.99051 12.6033 3.992 12.5965C3.99245 12.5944 3.9929 12.5924 3.99338 12.5903L3.99441 12.5886C4.02019 12.5092 4.07391 12.443 4.14553 12.4015C4.19353 12.374 4.24556 12.3594 4.30013 12.3573C4.30204 12.3575 4.30393 12.3577 4.30583 12.358C4.30894 12.3585 4.31205 12.359 4.31531 12.359H6.8385C6.8391 12.359 6.83969 12.3591 6.8403 12.3592C6.84131 12.3594 6.84236 12.3596 6.84347 12.3596C6.95981 12.3655 7.06416 12.4292 7.12341 12.5293L8.37534 14.6978C8.37646 14.7002 8.37736 14.7025 8.37826 14.7049C8.37947 14.7082 8.38069 14.7114 8.38247 14.7145C8.40938 14.7638 8.42297 14.8177 8.42297 14.8747C8.42297 14.9575 8.3925 15.0373 8.337 15.0986C8.33388 15.1021 8.33195 15.106 8.33002 15.1099C8.32853 15.1129 8.32704 15.116 8.325 15.1188C8.32335 15.1205 8.32166 15.1221 8.31998 15.1238C8.31631 15.1273 8.31268 15.1309 8.30953 15.135C8.193 15.2848 8.13141 15.4643 8.13141 15.6543C8.13141 16.1208 8.51072 16.5 8.97703 16.5C9.44344 16.5 9.82284 16.1208 9.82284 15.6543C9.82284 15.469 9.76397 15.2932 9.65203 15.1446L9.63169 15.1191C9.62936 15.1162 9.62657 15.1143 9.62376 15.1124C9.62149 15.1108 9.61921 15.1093 9.61716 15.1072C9.6161 15.106 9.61541 15.1045 9.6147 15.1031C9.61396 15.1015 9.6132 15.1 9.612 15.0986C9.5565 15.0373 9.52603 14.9575 9.52603 14.8747C9.52603 14.8189 9.53953 14.7659 9.56541 14.7173C9.56657 14.7155 9.56796 14.7139 9.56935 14.7123C9.57097 14.7104 9.57258 14.7086 9.57384 14.7063L10.8258 12.5378C10.8268 12.5364 10.8279 12.5352 10.829 12.534C10.8302 12.5328 10.8313 12.5316 10.8322 12.5302C10.8923 12.4374 10.9918 12.3818 11.1007 12.3748H13.6578C13.6593 12.3748 13.6608 12.3747 13.6622 12.3745C13.6659 12.3741 13.6695 12.3734 13.6731 12.3731C13.7275 12.3752 13.7796 12.3896 13.8276 12.4175C13.8994 12.4588 13.953 12.5251 13.9786 12.6042C13.9787 12.6045 13.9789 12.6048 13.9791 12.6051C13.9793 12.6052 13.9794 12.6054 13.9794 12.6056C13.9799 12.6076 13.9804 12.6095 13.9808 12.6114C13.9826 12.6191 13.9844 12.6267 13.9874 12.6342L13.9987 12.6623C14.0708 12.8328 14.1939 12.9718 14.3543 13.0643C14.4873 13.1408 14.6324 13.1774 14.7757 13.1774C15.0682 13.1774 15.3532 13.0257 15.5096 12.7548C15.7425 12.3508 15.6039 11.8326 15.1999 11.5992ZM11.2448 8.29941L9.60159 8.18184L8.98341 6.63919L8.36475 8.18184L6.72159 8.29941L7.98244 9.37059L7.58578 10.9859L8.98341 10.1052L10.381 10.9859L9.984 9.37059L11.2448 8.29941Z" fill="#6C6F80"/>
</g>
</svg>

<svg xmlns="http://www.w3.org/2000/svg" width="18" height="18" fill="none" viewBox="0 0 18 18">
  <path fill="#6C6F80" fill-rule="evenodd" d="M8.593 2.346a.395.395 0 1 1 .71.237l-.002.002-.007.01-.003.002a.784.784 0 0 0-.11.905l.007.01.005.006v.001l1.067 1.847a3.867 3.867 0 0 0-.436-.125l-.002-.006c0-.003-.002-.006-.004-.009l-.687-1.184h-.003a.162.162 0 0 0-.144-.09c-.068 0-.115.04-.15.102l-.666 1.167.002.003-.003.007-.002.005a3.828 3.828 0 0 0-.448.126l1.063-1.84a.22.22 0 0 0 .012-.027l.001-.003a.788.788 0 0 0-.106-.887L8.683 2.6l-.007-.011a.391.391 0 0 1-.083-.242Zm-5.334 3.72a.782.782 0 0 1 .835.358l.01.021.003.006 1.084 1.877a3.84 3.84 0 0 1 .127-.512l-.666-1.14c-.036-.061-.048-.123-.014-.183a.163.163 0 0 1 .152-.08V6.41l1.347-.004c.103-.113.214-.22.33-.32H4.311a.214.214 0 0 1-.037-.004.784.784 0 0 1-.709-.534l-.003-.007a.39.39 0 0 0-.174-.205.395.395 0 1 0-.147.733h.003l.005-.002.01-.003Zm.3 6.404a.396.396 0 0 1-.705.043.395.395 0 0 1 .414-.587.783.783 0 0 0 .83-.36v-.002l.006-.006a.063.063 0 0 0 .006-.009l1.081-1.873c.03.167.07.33.12.489l-.659 1.128c-.036.062-.048.124-.014.183a.163.163 0 0 0 .152.08v.003l1.32.003c.109.123.226.238.35.346H4.32a.786.786 0 0 0-.754.542l-.001.008-.002.007-.001.003-.002.002Zm11.56.06a.396.396 0 0 0-.406-.589h-.007a.781.781 0 0 1-.83-.359l-.001-.001v-.002l-.002-.002-.004-.004a.052.052 0 0 1-.006-.008L12.775 9.68a3.96 3.96 0 0 1-.115.472l.682 1.188v.002c.032.05.037.115.005.17-.034.06-.093.08-.164.08l-1.344-.008c-.11.12-.227.234-.35.34h2.163l.007-.001.015-.002h.006a.789.789 0 0 1 .728.544v.004l.001.004.001.005.004.01a.395.395 0 0 0 .705.042Zm-6.142 3.519a.395.395 0 0 0 .315-.632v-.002l-.002-.003-.002-.002-.003-.002a.784.784 0 0 1-.1-.93l.002-.003 1.06-1.836c-.142.049-.286.09-.434.123l-.002.002-.687 1.185H9.12a.161.161 0 0 1-.144.09c-.068 0-.115-.041-.15-.103l-.365-.64-.3-.527v-.006a3.793 3.793 0 0 1-.458-.13L8.77 14.48a.229.229 0 0 1 .017.037.782.782 0 0 1-.11.878l-.004.006-.008.012a.395.395 0 0 0 .312.637Zm5.058-10.09a.788.788 0 0 1-.353.103.228.228 0 0 1-.042.005h-2.163c.123.105.241.217.35.337a.18.18 0 0 1 .043-.007l.001-.003 1.344-.007c.07 0 .13.02.164.08a.162.162 0 0 1-.006.169l.001.002-.682 1.188a.175.175 0 0 1-.028.034c.043.14.078.285.106.432l1.074-1.861.004-.008a.788.788 0 0 1 .845-.378c.001 0 .003 0 .005.002l.005.001a.398.398 0 0 0 .44-.288.395.395 0 0 0-.747-.25l-.005.01-.004.006a.785.785 0 0 1-.352.433Zm-3.316 5.965a.22.22 0 0 0-.064.037 3.38 3.38 0 0 1-1.671.44A3.405 3.405 0 0 1 5.582 9a3.403 3.403 0 0 1 6.803 0c0 1.242-.67 2.33-1.666 2.924Zm4.48-.325a.837.837 0 0 0-.538-.105l-.004.001a.232.232 0 0 0-.041.005.332.332 0 0 1-.355-.153l-.006-.008a.076.076 0 0 1-.005-.007L12.984 9.14a.344.344 0 0 1 .014-.316.22.22 0 0 0 .024-.067l1.217-2.108a.061.061 0 0 0 .004-.01l.002-.005a.333.333 0 0 1 .353-.148h.003a.26.26 0 0 1 .007.002l.018.005a.705.705 0 0 0 .138.011.84.84 0 0 0 .815-.627.847.847 0 0 0-1.601-.535l-.001.002a.25.25 0 0 0-.016.037.334.334 0 0 1-.31.232l-.012.001-.007.002H11.04a.346.346 0 0 1-.197-.144L9.584 3.294a.065.065 0 0 0-.005-.008l-.004-.005a.33.33 0 0 1 .047-.38l.001-.001.001-.002a.37.37 0 0 1 .02-.02l.019-.023a.847.847 0 1 0-1.343.01.097.097 0 0 0 .01.01l.005.006a.062.062 0 0 1 .005.009.048.048 0 0 0 .007.011.334.334 0 0 1 .046.385l-.004.01-.003.006-1.22 2.113a.22.22 0 0 0-.044.053.343.343 0 0 1-.253.168h-2.55l-.007-.001a.332.332 0 0 1-.321-.233.228.228 0 0 0-.017-.038V5.36a.84.84 0 0 0-.361-.414.84.84 0 0 0-.642-.084.84.84 0 0 0-.514.394.84.84 0 0 0-.084.641.84.84 0 0 0 .815.627c.035 0 .07-.002.105-.006l.032-.005c.006 0 .012-.003.018-.004a.324.324 0 0 1 .009-.003h.002a.334.334 0 0 1 .354.154.064.064 0 0 0 .004.01L5 8.898a.342.342 0 0 1-.014.23l-1.262 2.187a.182.182 0 0 1-.004.005l-.007.01a.334.334 0 0 1-.355.152.218.218 0 0 0-.046-.005.847.847 0 1 0 .307 1.57.84.84 0 0 0 .355-.4l.012-.031a.144.144 0 0 0 .007-.027l.001-.001a.335.335 0 0 1 .312-.231l.01.001h2.526c.117.007.221.07.28.17l1.252 2.169a.097.097 0 0 1 .003.007.33.33 0 0 1 .045.17c0 .082-.03.162-.086.224l-.007.01-.005.01-.005.005a.838.838 0 0 0-.189.53.846.846 0 1 0 1.521-.51l-.02-.025a.034.034 0 0 0-.008-.007l-.007-.005-.002-.004a.333.333 0 0 1-.045-.39l.004-.007 1.252-2.168a.04.04 0 0 1 .003-.004.344.344 0 0 1 .272-.16h2.572a.333.333 0 0 1 .306.232l.002.005a.156.156 0 0 0 .006.023l.012.028a.837.837 0 0 0 .777.515.846.846 0 0 0 .424-1.578Zm-3.954-3.3-1.643-.117-.619-1.543-.618 1.543-1.643.117 1.26 1.072-.396 1.615 1.397-.88 1.398.88-.397-1.615 1.26-1.072Z" clip-rule="evenodd"/>
</svg>
